X: 42963
T: Willie Coleman's
R: jig
M: 6/8
K: Gmajor
|~g3 edB|dgb age|~b3 age|dBd e2d|
~g3 edB|dgb age|dBd gdB|AGF G3|

